X:1
T:Title
%%score { ( 1 4 ) | ( 2 3 ) }
L:1/8
M:4/4
K:F
V:1 treble nm="Grand Piano"
V:4 treble 
V:2 bass 
V:3 bass 
V:1
 z4 z2[Q:1/4=92] CF | [CA]>A _A=A [DB]AAG | [A,F]6 A>B | [Ac]>c =Bc [_Bd]c c>A | [EG]6 CF | %5
 [CA]>A GA [DB]2 BB | [D=B]>B AB [Ec]2 de | [Af]cBA [=B,A]G[CA]G |[M:3/4] [A,F]6 |[M:1/4] A>B | %10
[M:4/4] c6 z2 | [CEA]2 [B,EG]4 c>c | e6 z2 | B2 A4 A>B | cA A,>B, CA,Bc |[M:3/4] dB B,>C DB, | %16
[M:11/32] e/4-e/4-e/4-e/4-e/4-e/4-e/-<e/ z/4 | %17
[M:4/4] (9:8:8dcA3/2[CAc] [CEc][B,EB][G,EG]3/2[A,EA] |[M:3/4] F6 |] %19
V:2
 z4 z2 A,A, | z z/ C/ =B,C z CC_B, | F,,F,D,C, F,,2[K:treble] F>G | %3
 z z/[K:treble] A/ _A=A z A A>F | C,C,E,G, C,2 A,A, | z z/[K:treble] F/ E_E[K:bass] z2 DD | %6
 z z/[K:treble] G/ ^F=F[K:bass] z2[K:treble] =B_B | z ADC z =B, z _B, |[M:3/4] F,,6 | %9
[M:1/4][K:treble] F>G |[M:4/4] A6[K:bass] z2 | C,2 C,4[K:treble] B>B | B6[K:bass] z2 | %13
 [F,DF]2 [F,CF]4 F>G | AF[K:bass] F,>G, A,F,[K:treble]GA |[M:3/4] BG G,>A, B,G, | %16
[M:11/32] [Ec]/4-[Ec]/4-[Ec]/4-[Ec]/4-[Ec]/4-[Ec]/4-[Ec]/-<[Ec]/ z/4 | %17
[M:4/4] (9:8:8[DB][CA][F,A,F]3/2[K:bass]F, C,C,C,3/2C, |[M:3/4] (3:2:4z3 B,3/2B,3/2 A,3 |] %19
V:3
 x8 | F,,4 C,4 | x6[K:treble] x2 | F,,4[K:treble] F,4 | x8 | F,,4[K:treble][K:bass] B,,4 | %6
 G,,4[K:treble][K:bass] C,4[K:treble] | F,,4 G,,2 C,2 |[M:3/4] x6 |[M:1/4][K:treble] x2 | %10
[M:4/4] z2[K:bass] F,>F, F,F,F,F, | x6[K:treble] x2 | z2[K:bass] C,>C, C,[C,C][C,C][C,C] | x8 | %14
 x2[K:bass] x4[K:treble] x2 |[M:3/4] x6 |[M:11/32] z/4 z/4 z/4 z/4 z/4 z/4 z/ [DB]3/4 | %17
[M:4/4] x71/40[K:bass] x373/60 |[M:3/4] F,6 |] %19
V:4
 x8 | x8 | x8 | x8 | x8 | x8 | x8 | x8 |[M:3/4] x6 |[M:1/4] x2 |[M:4/4] z2 C>C C[CFA][DFB][CFA] | %11
 x8 | z2 C>C C[Bd][Ec][EG] | x8 | x8 |[M:3/4] x6 |[M:11/32] z/4 z/4 z/4 z/4 z/4 z/4 z/ d3/4 | %17
[M:4/4] x511/64 |[M:3/4] (3:2:4A,3 D3/2^C3/2 =C3 |] %19

